-----BEGIN PGP PRIVATE KEY BLOCK-----

lQPGBGpgYQkBCACnm4vciav7NIZQ2KOSpvlYQPY1KmfccgcbcDE/e9XFG5eag5j9
RuqZgzZBX/Qz0V7cIpEVPqCKoj1tx1w2/qyQ5P2InqPXgyfB1oMgwZSY55GaVqfW
3nym5evsJIWWmrkFApEu1wNWPv63xyz7mx1agZR3M+PTX5LPuzFOKKVps+cCalwG
eGbSRvS8jV2R3jNUdF88JYOmdaYaviz+h2Bx6N1WP4ydrkqSiAwsTOWCzoq0cT+Z
yqSVKaIVP5XVnXnvNmddDSsFfdP1j9PW9VeFUawu1iRam5I7GRQHYSluxPFatwUp
TMn4mN4GV53TDbzE3AdPbgN1kGsfMSxMQ+U9ABEBAAH+BwMC1qHmwkxyZNH6uMn8
+WiBP3fPJvaqXfz/HVRhnIO/qNhemf9xgbBpDa5d2+Irb9VcokFGHf3Dn+mZBMle
TkFAMye7u6iwm0MULCmqbaoyl2TyKdgQJ3s6pzzIMt99Bd/vX9J+CmjlYk0O2Y9p
MQVgdwXN5gCSK8HeKUQQwT48j4Kvb4kiyiqZnlrRSyg2bGB/2nbkKS/u8ccFPCf/
i75UZQx9aAjFd5zNgDEf/RYiA8EvuB1GUFuAGFD7/dBy4dyIGLaZFplQ/UZwx9x4
I9aPuoaPZ9Cf9Y5CSmiGNeCRrf6rRAdw7Tg4lILKGILS+27gCvtWJc3N+/Zp3F/W
uUiP8cLXN7Oxvpe8Hjza7TtM101hIkmw5MSmyYHOA5HZiGEwku4xtwMkaE/nSJMU
uFUAQwzhze7Co1prB9j9V62yWY2ZC13ZKuqqsvXYWXLF3IGGhjHuM1d972Y9fBgH
wOqgjJpjJJCY7Kmo5ytYs0t7hYtcoip7t+GelAUbg0nOXpkRK6f9zQb/A6PeHyho
DK6AqdQVffyMXjg8MoOzpQ59cqGABeaf0QZ+mHvlH31xFq7rJRVxh67Cb55UZE0j
wbU5BESOy3vSPIXObmy8q5QMs/9kUuDJHeYiJpebeY/3LDbXGitxYks/ihblpRs0
XkHL2orumqoW/Hxw0JZamR/8VWoAYWAKJaIKD8e1Lr0jyAQC0QzKKKrINwDwOjIu
WiF614BTJtwW5/I2PsHaHEAow9IlKvEapnNNjiH5zfZK6MIydFTWOghTfDQY/q9i
APyR0vBvZ0fr1RCKBiqKQrdR6aokSrP+8DB4hNicrzDoWkGG6AbCAlOzlv9djOYW
pLCM1NT8XVXHnh1B4b+kah8Q192uDcggozgLGLU+CGnuYBWQb277WIkNKXsRZV9R
GB9dHyxFm27CtC1IZXhhIENvbnN1bHRpbmcgPHNlY3VyaXR5QGhleGFjb25zdWx0
aW5nLmNvbT6JAXMEEwEIAF0WIQTmP83y0ohNa3wwlSA0l8X1xfHUlAUCamBhCRsU
gAAAAAAEAA5tYW51MiwyLjUrMS4xMiwyLDECGwMFCQWk7l8FCwkIBwICIgIGFQoJ
CAsCBBYCAwECHgcCF4AACgkQNJfF9cXx1JTlkAf/WW4yl9e81/4qcAVS3zvCWLgK
tNHIz7yl1M+r5jLfZcLc/l+rHdYF0P3oVSeT82y+YdrXGPIAvD3zjsAe0Fb5TYuR
X7lxi3eQ947Gf+ZN/sCGB3xD0wf2+ThIHvkuXf8EFN4TSpfLeCw8jXGcn1zGTKrk
6CMxVGTwCG9CKXf/RSAGJwwDD4+LsDc30aW7xLVfqORylc8N1HsS1wF7McXefZZP
QNmF9YgMZiDT9rbfdSXkDXrj+woDzTTNQdWAlys1+RDguM0B3x6g1keTqDiap4sv
fZ8Pyv/R0/WrrrFrEwLmKLK++MDtxgwyZUbrC3bkW8n853QQKMmNo+NPRGIrYZ0D
xgRqYGEJAQgAvkciMXRpE2u6wKYGYQPhrI9TRAulidkdXeaU64TQYfLUFZfLzTEP
DuSTl/3uzy0Y6wdsdyChxZABwd4qhwSjUHBq0nY1xtShVjicL8UVkR89ZCqmer59
b/CFi3Qu81UBQ+NtW+JYOz4pCpPABC5K4YkTcjX7d6q6/HvnNgxFtKghICyWtIU3
esESuo1JFOrNNZnQ2QDTy6h1pGOgvausNGHZe7ys575MufpckVIrftOXNNFna/5E
PkwCtn4dmuOZfgclqHPyEVVLSFSCdSFlR1HLXsMuJ1vtE16+ZiDOUDwYjk3zgN1f
qkb1BZnpbpXnSW0kohmnhHsZ+ycMfUYzawARAQAB/gcDAs7bAa4kDbYk+txu93EF
d203tGGfJQYIu1X/eNtAOz/VBTVhFVFIYI3hjzb3PfcS/QjYMxZdGwNFXO/WQOwV
gKZXGWtMzEWExGQOzPtzzhCa0GnuYmay8XBXQDaRf3nDf9DGIWqQXByNSu1lQc/n
u6AoWC//7moMIY2l3cpoz7nuPA7odUWiStcEb18Ulq5tPPHqsiNEJimAm6GBJf3z
xwRT+uI0lWuEuZMeUf9HvFORqLaCupeP3et2J6xzXAMkKfRdIB8Rcs87ObEbERtL
r5T0q7C/EBaLE0domyc+2Jn8E34RBEOIv1if7AMgMnTM1pkPPcBlB3zs+lTrh4kb
9KlZDhlEr75OyxnQK2J+fnRmc/pOU/iWH+32PyHwmZZxab/1xOzNYvBY3vgDd2Cr
LAj3A6p/lfKTOgyqHi0eCg0lK1UavTxOS6GujZ87hzEGJrOwukcqh+/dVWWRujrp
5LY3c7ICbE/uWiOpNj+Oiy9FH4KJAuiCVSPXA8ZSWlgkhL1vML2UVo/t0Yz7cN/6
YcCehaEPFK7gEf4qysGpxjnNELXIRFTluIGscrIIG1pKHdrz0pcgGOlutVEw1yYu
GZ40IbR1aeSWCmeo5kCGyzaCRcnQRSfBbN4GHOUQgy7NzwNVD1Bg+47XWrTTBMHM
qqlQ1sH+UDRN3ExbtmWAoqU3zyoQLynWadP+gtNXfM35+NgwvBIYVZk9qhyaiZsR
f3pZ6xhtFTIm+jX80S3+kbpWAiDz1Y/nijnOYaeSrxLeH9gJ/0wR7N+wa01jtdyw
5NTcnAoXrS/OEjdEGnF5WbmNhlP3+wtm0syvNqk0OlcwpfMUpePSgPLPcNEZwJ7c
nzXpBvx1XtY26KDjEABKEjUzo0O3NJ0gDPjkHYdvloBfhie+jWLg4sKJ5Bry0PoO
Eoni7zdXXYkBWAQYAQgAQhYhBOY/zfLSiE1rfDCVIDSXxfXF8dSUBQJqYGEJGxSA
AAAAAAQADm1hbnUyLDIuNSsxLjEyLDIsMQIbDAUJBaTuXwAKCRA0l8X1xfHUlD1v
B/4kJM41Dj2KGPrEyYml+bDoatTQJluPRQgboQeLNGVplysexDcL2l3AUqXKbNCW
MOPIWDQ/D1nRCTDcuCxMLP3OTHXMoTxMoB6OIw515zdjfZtbcSHp0Du0hfwH5JHw
Kp469tmWAW7jNd/PMsyPsj/xlxIlLsKUmLjmbAgNCq7iAp/EoHrcX4LIpGBHKyDe
TbgdC3NlvoqUkw+r9lk1KdZuouL/G9OJtjImRyOort6XMtvOKuJzwmYnGlplNK6o
+VXlac4M+HIq7JHJjbFDffSNW17hbyPNijZtnB/YR8Ws0kHxNT6NefXpMkfinmST
5Md/Z7YHgUpdPmC9lVYlfdTI
=0kt8
-----END PGP PRIVATE KEY BLOCK-----
